X: 762
T: Old Yellow Dog
B: jims roots
M:4/4
L:1/8
Q: 1/4=100
K:G
V:1 
|:"G"([D2G,] || [D2G,])[G,E][G,F] [G2G,] AG| BABc BAGB|"D"ADAB AGEF |"G"GFGA GDB,C|
  "G"D2 EF G2 ([D2B] | [DB])ABc BA G2| "D"A2AG BGAF |"G"G6:||:ef||"G"g4"C"[e4g] |
"G"[d6g]G2 | B3A G4 |"Em"E6 [G,2D] | "G"g4"C"[e4g] | "G"[d6g] G2 |"D"B3c "D"A2F2 |"G"G6:|
% abcbook-tune_id 6298c27934582be2d0da3294


% abcbook-boost 0
% abcbook-tablature 
% abcbook-transpose 
% abcbook-lastupdated 1654178426162
% abcbook-soundfonts 
% abcbook-repeats 1


